icons/communication/comment-alert-24.svg

<svg width="24" height="24" viewBox="0 0 24 24" fill="none" xmlns="http://www.w3.org/2000/svg">
<path d="M12.5303 5.71967C12.3897 5.57902 12.1989 5.5 12 5.5C11.8011 5.5 11.6103 5.57902 11.4697 5.71967C11.329 5.86032 11.25 6.05109 11.25 6.25V10.25C11.25 10.4489 11.329 10.6397 11.4697 10.7803C11.6103 10.921 11.8011 11 12 11C12.1989 11 12.3897 10.921 12.5303 10.7803C12.671 10.6397 12.75 10.4489 12.75 10.25V6.25C12.75 6.05109 12.671 5.86032 12.5303 5.71967Z" fill="black"/>
<path d="M12.7071 14.2071C12.5196 14.3946 12.2652 14.5 12 14.5C11.7348 14.5 11.4804 14.3946 11.2929 14.2071C11.1054 14.0196 11 13.7652 11 13.5C11 13.2348 11.1054 12.9804 11.2929 12.7929C11.4804 12.6054 11.7348 12.5 12 12.5C12.2652 12.5 12.5196 12.6054 12.7071 12.7929C12.8946 12.9804 13 13.2348 13 13.5C13 13.7652 12.8946 14.0196 12.7071 14.2071Z" fill="black"/>
<path fill-rule="evenodd" clip-rule="evenodd" d="M2.75 2C1.7835 2 1 2.7835 1 3.75V16.25C1 17.2165 1.7835 18 2.75 18H5V20.7183C5 21.8076 6.29633 22.3757 7.09724 21.6374L10.9712 18.0662C11.0173 18.0236 11.0778 18 11.1406 18H21.25C22.2165 18 23 17.2165 23 16.25V3.75C23 2.7835 22.2165 2 21.25 2H2.75ZM2.5 3.75C2.5 3.61193 2.61193 3.5 2.75 3.5H21.25C21.3881 3.5 21.5 3.61193 21.5 3.75V16.25C21.5 16.3881 21.3881 16.5 21.25 16.5H11.1406C10.7011 16.5 10.2776 16.6654 9.95446 16.9633L6.5 20.1478V17.5C6.5 16.9477 6.05228 16.5 5.5 16.5H2.75C2.61193 16.5 2.5 16.3881 2.5 16.25V3.75Z" fill="black"/>
</svg>

<svg xmlns="http://www.w3.org/2000/svg" width="24" height="24"><path d="M12.53 5.72a.75.75 0 00-1.28.53v4a.75.75 0 101.5 0v-4a.75.75 0 00-.22-.53zm.177 8.487a1 1 0 11-1.414-1.414 1 1 0 011.414 1.414z"/><path fill-rule="evenodd" d="M2.75 2A1.75 1.75 0 001 3.75v12.5c0 .966.784 1.75 1.75 1.75H5v2.718c0 1.09 1.296 1.658 2.097.92l3.874-3.572a.25.25 0 01.17-.066H21.25A1.75 1.75 0 0023 16.25V3.75A1.75 1.75 0 0021.25 2H2.75zM2.5 3.75a.25.25 0 01.25-.25h18.5a.25.25 0 01.25.25v12.5a.25.25 0 01-.25.25H11.14c-.439 0-.862.165-1.186.463L6.5 20.148V17.5a1 1 0 00-1-1H2.75a.25.25 0 01-.25-.25V3.75z"/></svg>
